frontend/public/svg/logos/skype.svg

<svg width="175" height="176" viewBox="0 0 175 176" fill="none" xmlns="http://www.w3.org/2000/svg">
<g clip-path="url(#clip0)">
<path d="M167.682 97.4739C168.901 81.6765 165.333 65.6858 156.459 47.1508C152.148 38.1498 145.953 30.4018 137.522 23.4637C127.845 15.5016 115.916 10.2714 99.9791 6.99951C85.1623 3.95998 73.8713 3.82008 63.4146 6.55241C62.3816 6.13498 61.3695 5.71046 60.3679 5.28909C57.9966 4.29277 55.7565 3.35219 53.4108 2.56984C45.8629 0.0540947 39.2279 -0.226034 33.1227 1.71672C17.234 6.76329 6.82651 17.4909 2.19014 33.6001C-0.899245 44.3358 1.92042 54.8328 5.08725 63.6855C6.4334 67.4478 6.669 70.4308 5.87483 73.662C3.09393 84.9805 3.44312 95.8285 6.9132 105.905L7.07919 106.388C8.54105 110.956 10.2999 115.423 12.3444 119.761C21.6368 138.39 32.7703 150.315 47.381 157.292C54.9131 160.873 62.7614 163.747 70.8246 165.877C79.9681 168.306 89.8013 170.195 99.7691 167.609C100.825 167.337 102.591 167.911 104.757 169.225C110.58 172.847 117.299 174.771 124.157 174.78C128.777 174.743 133.362 173.961 137.734 172.465C147.776 169.129 157.884 164.677 163.759 154.777C174.928 135.969 176.569 118.777 168.774 102.219C168.032 100.748 167.658 99.1207 167.682 97.4739ZM113 159.294C109.168 157.298 105.641 156.34 102.076 156.34C101.279 156.34 100.483 156.387 99.691 156.481C87.0106 157.976 73.9836 155.753 58.6995 149.486C43.651 143.316 32.1349 132.209 23.4942 115.526C22.3404 113.294 21.3493 110.921 20.3904 108.622C19.9861 107.654 19.5825 106.685 19.1651 105.722C15.3084 96.8268 14.3889 86.7959 16.3546 75.0567C17.3864 68.897 16.9006 64.1239 14.7321 59.0963C10.8397 50.0603 10.3926 39.9114 13.4752 30.568C15.8498 23.1048 21.6139 16.9042 29.2871 13.5542C36.9879 10.1938 45.4986 10.1913 52.6311 13.5478C57.6429 15.9034 62.3395 15.8732 67.1097 15.6264C97.5842 14.0335 118.666 20.3257 135.465 36.02C138.696 39.0314 141.517 42.4542 143.856 46.2006C152 59.2676 156.641 74.2113 157.335 89.5926C155.636 95.3887 157.63 100.916 159.74 106.767L160.176 107.979C165.436 122.693 162.604 137.125 151.762 150.876C145.779 158.461 136.237 162.445 123.397 162.715C120.016 162.793 116.25 160.985 113.002 159.294H113Z" fill="black"/>
<path d="M104.041 81.3094C99.7423 80.0598 95.3698 79.0818 90.948 78.3815C88.7565 77.9877 86.4908 77.5801 84.2888 77.1102C83.3194 76.9021 82.3415 76.7124 81.3629 76.5195C78.4074 76.0364 75.4998 75.2934 72.6743 74.2991C66.7889 72.0117 64.8936 67.6005 67.1906 61.542C68.0543 59.0782 69.4936 56.856 71.3885 55.06C73.2833 53.2641 75.5792 51.9462 78.0858 51.2159C94.6222 46.2566 106.151 48.3411 115.471 57.9761C115.781 58.2544 116.149 58.4605 116.548 58.5792C116.765 58.6632 117.021 58.7638 117.324 58.9029C117.464 58.9674 117.621 58.9822 117.77 58.9452C117.919 58.9082 118.051 58.8215 118.144 58.6994C120.966 54.9878 121.305 53.9876 118.823 50.8634C115.645 46.8644 111.233 43.9862 105.71 42.3092C97.4005 39.7752 88.595 39.3204 80.0672 40.9847C68.3917 43.2208 60.7712 49.5436 57.4239 59.7766C54.3883 69.0444 57.439 77.353 65.5841 82.0019C69.5409 84.2603 74.1326 85.527 77.6913 86.3777C80.444 87.034 83.2859 87.4586 86.0347 87.8669C88.5288 88.2371 91.1088 88.6204 93.5924 89.1796C96.9509 89.933 100.832 90.9517 104.155 92.796C110.718 96.44 114.157 102.29 113.846 109.27C113.533 116.293 107.884 119.626 102.4 121.962L102.16 122.065C101.456 122.388 100.727 122.657 99.9818 122.867C84.9616 126.63 71.8643 124.617 59.9395 116.717C59.6425 116.51 59.3576 116.286 59.0864 116.045C58.491 115.434 57.7404 114.997 56.9152 114.779C55.3439 114.523 53.2292 114.42 52.0898 115.388C50.9504 116.355 50.4588 118.63 50.7115 120.15C51.0557 121.849 51.9784 123.376 53.3224 124.471C53.7162 124.785 54.1153 125.103 54.5137 125.422C57.1141 127.506 59.8031 129.661 62.8491 130.974C70.3252 134.292 78.4041 136.036 86.5827 136.098C92.2856 136.089 97.9531 135.201 103.385 133.465C110.523 131.207 115.893 127.682 119.799 122.688C124.656 116.481 126.024 109.683 123.868 102.485C120.592 91.5391 113.92 84.4146 104.041 81.3094Z" fill="black"/>
</g>
<defs>
<clipPath id="clip0">
<rect width="173.93" height="175.242" fill="white" transform="translate(0.317017 0.176758)"/>
</clipPath>
</defs>
</svg>

<svg xmlns="http://www.w3.org/2000/svg" width="175" height="176" fill="none" viewBox="0 0 175 176"><g fill="#000" clip-path="url(#a)"><path d="M167.682 97.474c1.219-15.797-2.349-31.788-11.223-50.323-4.311-9.001-10.506-16.75-18.937-23.687C127.845 15.502 115.916 10.27 99.979 7c-14.817-3.04-26.108-3.18-36.564-.448a232 232 0 0 1-3.047-1.263c-2.371-.996-4.611-1.937-6.957-2.72C45.863.055 39.228-.225 33.123 1.718 17.234 6.763 6.827 17.49 2.19 33.6-.9 44.336 1.92 54.833 5.087 63.685c1.346 3.763 1.582 6.746.788 9.977-2.781 11.319-2.432 22.167 1.038 32.243l.166.483a110 110 0 0 0 5.265 13.373c9.293 18.629 20.426 30.554 35.037 37.531a135 135 0 0 0 23.444 8.585c9.143 2.429 18.976 4.318 28.944 1.732 1.056-.272 2.822.302 4.988 1.616a36.8 36.8 0 0 0 19.4 5.555 43 43 0 0 0 13.577-2.315c10.042-3.336 20.15-7.788 26.025-17.688 11.169-18.808 12.81-36 5.015-52.558a10.2 10.2 0 0 1-1.092-4.745M113 159.294c-3.832-1.996-7.359-2.954-10.924-2.954q-1.196 0-2.385.141c-12.68 1.495-25.707-.728-40.991-6.995-15.049-6.17-26.565-17.277-35.206-33.96-1.154-2.232-2.145-4.605-3.104-6.904-.404-.968-.808-1.937-1.225-2.9-3.857-8.895-4.776-18.926-2.81-30.665 1.031-6.16.546-10.933-1.623-15.96a40.24 40.24 0 0 1-1.257-28.529c2.375-7.463 8.139-13.664 15.812-17.014 7.7-3.36 16.212-3.363 23.344-.006 5.012 2.355 9.709 2.325 14.479 2.078 30.474-1.592 51.556 4.7 68.355 20.394a50.4 50.4 0 0 1 8.391 10.18 89.7 89.7 0 0 1 13.479 43.393c-1.699 5.796.295 11.323 2.405 17.174l.436 1.212c5.26 14.714 2.428 29.146-8.414 42.897-5.983 7.585-15.525 11.569-28.365 11.839-3.381.078-7.147-1.73-10.395-3.421z"/><path d="M104.041 81.31a107 107 0 0 0-13.093-2.928c-2.191-.394-4.457-.802-6.66-1.272-.969-.208-1.947-.398-2.925-.59a51 51 0 0 1-8.689-2.22c-5.885-2.288-7.78-6.7-5.483-12.758a16.41 16.41 0 0 1 10.895-10.326c16.536-4.96 28.065-2.875 37.385 6.76.31.278.678.485 1.077.603.217.084.473.185.776.324a.676.676 0 0 0 .82-.204c2.822-3.711 3.161-4.711.679-7.836-3.178-3.999-7.59-6.877-13.113-8.554a53.1 53.1 0 0 0-25.643-1.324c-11.675 2.236-19.296 8.559-22.643 18.792-3.036 9.267.015 17.576 8.16 22.225 3.957 2.258 8.549 3.525 12.107 4.376 2.753.656 5.595 1.08 8.344 1.489 2.494.37 5.074.753 7.557 1.313 3.359.753 7.24 1.772 10.563 3.616 6.563 3.644 10.002 9.494 9.691 16.474-.313 7.023-5.962 10.356-11.446 12.692l-.24.103a15 15 0 0 1-2.178.802c-15.02 3.763-28.118 1.75-40.042-6.15a9 9 0 0 1-.854-.672 4.7 4.7 0 0 0-2.17-1.266c-1.572-.256-3.687-.359-4.826.609-1.14.967-1.631 3.242-1.379 4.762a7.5 7.5 0 0 0 2.611 4.321l1.192.951c2.6 2.084 5.29 4.239 8.335 5.552a59.6 59.6 0 0 0 23.734 5.124 55.5 55.5 0 0 0 16.802-2.633c7.138-2.258 12.508-5.783 16.414-10.777 4.857-6.207 6.225-13.005 4.069-20.203-3.276-10.946-9.948-18.07-19.827-21.176"/></g><defs><clipPath id="a"><path fill="#fff" d="M.317.177h173.93v175.242H.317z"/></clipPath></defs></svg>
